X:335
T: ACH MUTTER ES HUNGERT MICH
N: E0189
O: Europa, Mitteleuropa, Deutschland, Halle; Eisleben
R: erzaehlendes Volks - Lied, Sage, Familien - Geschichte
M: 4/4
L: 1/8
K: F
F2 | AAA2ccA2 | A2G2G2z2 |
A2A2c2A2 | A2G2G2z2 |
F2d2d2d2 | d2c2c2z
B | AAA2c2cB | A4z2

@@@ Tune index: 3985
